X:125
T:The Old One
D:Jackie Daly, "Many's a Wild Night", track 12(b)
M:2/4
L:1/8
R:polka
K:AMix
e>e fe | e/f/g/e/ a2 | BB/B/ d/B/A | BA/B/ d/B/A |\
e>e fe | e/f/g/e/ a2 |BA/B/ dB | A2 A2 :|
|:fA fA | ff g>f | ed ef/e/ |d/c/d/f/ a>g |\
fA fA | ff g>f |e/f/e/d/ c/A/B/c/ |d2 d2 :|
